X:1
T: The Fox and the Grapes
C:
R:Reel
Q: 232
K:D
M:4/4
L:1/8
|:a2 ag f2 fe|d2 de f4|g2 eg f2 df|ed ef ef ge|
a2 ag f2 fe|d2 de f4|g2 eg f2 df|ed ef d2 a2|
e2 f2 g2 a2|e2 f2 g2 a2|e2 f2 g2 b2|a2 ^g2 a2 z2|
e2 f2 g2 a2|e2 f2 g2 a2|e2 f2 g2 b2|a2 ^g2 a2 z2:|
